X: 39
T: No_45_Song_to_a_Bee.krn
N: Derived from No_45_Song_to_a_Bee.krn
%%abc-version 2.0
%%abcx-abcm2ps-target-version 5.9.1 (29 Sep 2008)
%%abc-creator hum2abc beta
%%abcx-conversion-date 2019/03/15 08:25:35
%%humdrum-veritas 1043631907
%%humdrum-veritas-data 419350858
%%linebreak <none>
%%barnumbers 0
L: 1/8
M: 3/4
K: D clef=bass
[K:clef=bass][M:3/4]z4z3/ B,/ | 
D2D2D3/B,/ | 
D2D2D z ]|:  
DF DB,3//C//D2 | 
[M:2/4]A,B, A,A,3//F,// | 
A,2A,2 | 
A,A, A, z | 
[M:3/4]DE DB,3//C//D2 | 
[M:2/4]A,B, A,3/F,/ | 
[M:3/4]A,3/F,/ A,/F,/D, D, z | 
[M:2/4]DD DD | 
B,B,/C/ B,A,/ z/ | 
A,/F,/D,/D,/ F,3/D,/ | 
[M:3/4]F,F,/D,/- D,D, D, z | 
[M:2/4]F,/D,3/D,2 | 
F,/D,3/D,2 | 
z D, D, z :|]  
D,D,D,2 | 
D,D, D, z | 
DD DD | 
B,B,/C/ B,A,/ z/ | 
A,/F,/D,/D,/ F,3/D,/ | 
[M:3/4]F,F,/D,/- D,D, D, z | 
[M:2/4]F,D, D, z | 
A,A, F,D,/D,/ | 
[M:3/4]F,A, F,/D,3/ D, z | 
[M:2/4]D,F, D,B,, | 
D,D, D,D, | 
[M:3/4]D,A, A,F,/F,/ D, z | 
F,//D,3//D, F,/D,/D,3/D,/F,/A,/ | 
D,D, D,D, D,D, |]  



